!!!SOCIAL_FUNCTION:	summer dances
!!!PDT:	1956
!!!OTL: No_191_Crawfish_Dance_Song_(b).krn
!!!LANG: Non-Tone
!!!LING_GROUP: Muskogean
!!!REG: Florida
**kern
*staff1
=1-
*clefF4
*k[f#c#g#d#]
*M3/4
2r
8E\L
8F#\J
=2!|:
[2G#\
8G#\L]
8F#\J
=3||
*M4/4
16E\LK
8E\
16E\Jk
4E\
8C#/
8r
8E\L
8G#\J
=4||
*M3/4
[2F#\
8F#\L]
8E\J
=5||
*M4/4
16C#/LK
8C#/
16C#/Jk
4C#/
8BB/
8r
8BB/L
8F#/J
=6||
*M2/4
2E\
=7||
*M4/4
16F#\LK
8.E\J
12E\L
12E\
12E\J
8E\L
8E\J
4C#/
=8||
*M2/4
2E\
=9
16E\LK
8.E\J
8C#/
8r
=10
[2E\
=11
2E\]
=12
4r
4C#/
=13
2E\
=14
8E\L
8E\J
4C#/
=15
2E\
=16
4E\
8F#\L
8F#\J
=17:|!
16F#\LK
8.E\J
8.E\L
16E\Jk
=18
4E\
4E\
=19
16G#\LK
8.E\J
8E\L
8E\J
=20
32G#\LLK
16.F#\J
8E\J
8E\
8r
=21
16G#\LK
8.E\J
8E\L
8E\J
*-
